symbols/web/network_locked/materialsymbolsoutlined/network_locked_wght100gradN25fill1_40px.svg

<svg xmlns="http://www.w3.org/2000/svg" height="40" width="40"><path d="M30.375 35.625q-.583 0-1.083-.5t-.5-1.042v-4.291q0-.584.479-1.042.479-.458 1.104-.458h.125v-1.709q0-1.166.812-2 .813-.833 1.98-.833 1.208 0 2.02.833.813.834.813 2v1.709h.167q.5 0 1 .458t.5 1.042v4.291q0 .542-.5 1.042t-1 .5Zm1.25-7.333H35v-1.709q0-.708-.479-1.208t-1.229-.5q-.709 0-1.188.5t-.479 1.25ZM8.708 34.417l25.75-25.709v11.417H33.5q-3.417 0-5.833 2.417-2.417 2.416-2.417 5.833v6.042Z"/></svg>

<svg xmlns="http://www.w3.org/2000/svg" height="40" width="40"><path d="M30.375 35.625Q29.792 35.625 29.292 35.125Q28.792 34.625 28.792 34.083V29.792Q28.792 29.208 29.271 28.75Q29.75 28.292 30.375 28.292H30.5V26.583Q30.5 25.417 31.312 24.583Q32.125 23.75 33.292 23.75Q34.5 23.75 35.312 24.583Q36.125 25.417 36.125 26.583V28.292H36.292Q36.792 28.292 37.292 28.75Q37.792 29.208 37.792 29.792V34.083Q37.792 34.625 37.292 35.125Q36.792 35.625 36.292 35.625ZM31.625 28.292H35V26.583Q35 25.875 34.521 25.375Q34.042 24.875 33.292 24.875Q32.583 24.875 32.104 25.375Q31.625 25.875 31.625 26.625ZM8.708 34.417 34.458 8.708V20.125H33.5Q30.083 20.125 27.667 22.542Q25.25 24.958 25.25 28.375V34.417Z"/></svg>
